X: 165
T: The Wounded Hoosier
B: canberra pickers and fiddlers
B: old time tunes update
B: tunes
M:C|
L:1/8
R: Air
Q: 1/4=100
K:D
V:1 
A-|B4A2F2|A4 A2 Bc|d3e d2A2|(EF3)-F2(FE|
D2)E2F2G2|A2B2 A2G2|F4 D3E|D6-D:|
|:A|d3e f2g2|a3f a3g-|g2gag2  e2 |f4  f2e2|
d3e d2A2|[d6f6]  ([df]e)|d3e d2F2|G2B2 A2 G2|F2D>E D3:|
% abcbook-tune_id 67a7d9ec1e2e7b1cfcae466c
% abcbook-tune_composer_id 
% abcbook-link-0 https://www.youtube.com/watch?v=99SmgUbEDSI
% abcbook-link-title-0 The Wounded Hoosier
% abcbook-boost 0
% abcbook-difficulty 0
% abcbook-tags old time tunes
% abcbook-tablature 
% abcbook-transpose 
% abcbook-tuning DDAD
% abcbook-lastupdated 1739099707486
% abcbook-src-url 
% abcbook-soundfonts 
% abcbook-repeats 1


